X:0506
T:Crief Fair.
M:C|
L:1/8
Q:1/2=104
I: :: ||
Z:Jack Campin * www.campin.me.uk * 2009
K:D Minor
(ABA).G (FGA).B | cdcA    cdcB|(ABA).G   FGAg  |fde^c d/d/d d2:|
(def).g (af)(ge)|(fTdc)A  FGAc| defg     afge  |fde^c d/d/d d2 |
 defg    afge   |(fTdc).A FGAc| A/B/c Fc A(bag)|fde^c d/d/d d2|]
<end>
<start>
